_includes/icons/color-whatsapp.svg

<svg fill="#666" height="50" viewBox="0 0 48 48" width="50" xmlns="http://www.w3.org/2000/svg"><path d="m4.867188 43.304688 2.695312-9.835938c-1.664062-2.878906-2.535156-6.144531-2.535156-9.488281.003906-10.464844 8.519531-18.980469 18.988281-18.980469 5.078125.003906 9.84375 1.980469 13.429688 5.566406 3.582031 3.585938 5.558593 8.355469 5.554687 13.425782-.003906 10.46875-8.523437 18.980468-18.984375 18.980468-.003906 0 0 0 0 0h-.007812c-3.179688 0-6.300782-.796875-9.074219-2.308593z" fill="#fff"/><path d="m4.867188 43.804688c-.132813 0-.257813-.054688-.355469-.148438-.125-.128906-.171875-.3125-.125-.484375l2.636719-9.636719c-1.632813-2.90625-2.496094-6.207031-2.496094-9.554687.003906-10.742188 8.746094-19.480469 19.488281-19.480469 5.207031.003906 10.101563 2.03125 13.78125 5.714844 3.679688 3.679687 5.707031 8.574219 5.703125 13.777344-.003906 10.742187-8.746094 19.480468-19.484375 19.480468-3.191406 0-6.34375-.785156-9.144531-2.277343l-9.875 2.589843c-.042969.011719-.085938.019532-.128906.019532z" fill="#fff"/><path d="m24.015625 5c5.078125.003906 9.84375 1.980469 13.429688 5.566406 3.582031 3.585938 5.558593 8.355469 5.554687 13.425782-.003906 10.46875-8.523437 18.980468-18.984375 18.980468h-.007812c-3.179688 0-6.300782-.796875-9.074219-2.308593l-10.066406 2.640625 2.695312-9.835938c-1.664062-2.878906-2.535156-6.144531-2.535156-9.488281.003906-10.464844 8.519531-18.980469 18.988281-18.980469m0-1c-11.019531 0-19.984375 8.960938-19.988281 19.980469 0 3.367187.847656 6.683594 2.460937 9.621094l-2.585937 9.4375c-.09375.347656.003906.714843.253906.96875.191406.191406.449219.296875.710938.296875.085937 0 .171875-.011719.253906-.035157l9.6875-2.539062c2.828125 1.46875 6 2.242187 9.199219 2.246094 11.023437 0 19.988281-8.964844 19.992187-19.980469.003906-5.339844-2.074219-10.359375-5.847656-14.136719-3.773438-3.777344-8.796875-5.855469-14.136719-5.859375z" fill="#cfd8dc"/><path d="m35.175781 12.832031c-2.980468-2.980468-6.941406-4.625-11.15625-4.625-8.703125 0-15.785156 7.074219-15.789062 15.773438 0 2.980469.835937 5.882812 2.414062 8.394531l.375.597656-1.59375 5.820313 5.972657-1.566406.578125.34375c2.421875 1.4375 5.199218 2.199218 8.03125 2.199218h.007812c8.695313 0 15.773438-7.078125 15.777344-15.777343.003906-4.214844-1.636719-8.179688-4.617188-11.160157z" fill="#40c351"/><path d="m19.269531 16.046875c-.355468-.792969-.730468-.808594-1.070312-.820312-.277344-.011719-.59375-.011719-.910156-.011719-.3125 0-.828125.117187-1.261719.59375-.4375.472656-1.664063 1.621094-1.664063 3.957031 0 2.332031 1.703125 4.589844 1.9375 4.90625.238282.3125 3.285157 5.257813 8.105469 7.160156 4.007813 1.578125 4.824219 1.265625 5.691406 1.1875.871094-.082031 2.808594-1.148437 3.203125-2.257812.394532-1.105469.394532-2.054688.277344-2.253906-.117187-.199219-.433594-.316407-.910156-.554688-.472656-.238281-2.804688-1.382812-3.242188-1.542969-.433593-.15625-.75-.234375-1.066406.238282-.316406.472656-1.226562 1.542968-1.503906 1.859375-.277344.316406-.550781.355468-1.027344.121093-.472656-.238281-2-.738281-3.8125-2.355468-1.410156-1.257813-2.363281-2.808594-2.640625-3.285157-.277344-.472656-.03125-.730468.207031-.96875.214844-.210937.476563-.554687.714844-.832031.234375-.277344.3125-.472656.472656-.789062.15625-.316407.078125-.59375-.039062-.832032-.117188-.238281-1.039063-2.582031-1.460938-3.519531z" fill="#fff" fill-rule="evenodd"/></svg>

<svg xmlns="http://www.w3.org/2000/svg" viewBox="0 0 48 48" width="50" height="50" fill="#666"><path d="M 4.867188 43.304688 L 7.5625 33.46875 C 5.898438 30.589844 5.027344 27.324219 5.027344 23.980469 C 5.03125 13.515625 13.546875 5 24.015625 5 C 29.09375 5.003906 33.859375 6.980469 37.445313 10.566406 C 41.027344 14.152344 43.003906 18.921875 43 23.992188 C 42.996094 34.460938 34.476563 42.972656 24.015625 42.972656 C 24.011719 42.972656 24.015625 42.972656 24.015625 42.972656 L 24.007813 42.972656 C 20.828125 42.972656 17.707031 42.175781 14.933594 40.664063 Z" fill="#fff"/><path d="M 4.867188 43.804688 C 4.734375 43.804688 4.609375 43.75 4.511719 43.65625 C 4.386719 43.527344 4.339844 43.34375 4.386719 43.171875 L 7.023438 33.535156 C 5.390625 30.628906 4.527344 27.328125 4.527344 23.980469 C 4.53125 13.238281 13.273438 4.5 24.015625 4.5 C 29.222656 4.503906 34.117188 6.53125 37.796875 10.214844 C 41.476563 13.894531 43.503906 18.789063 43.5 23.992188 C 43.496094 34.734375 34.753906 43.472656 24.015625 43.472656 C 20.824219 43.472656 17.671875 42.6875 14.871094 41.195313 L 4.996094 43.785156 C 4.953125 43.796875 4.910156 43.804688 4.867188 43.804688 Z" fill="#fff"/><path d="M 24.015625 5 C 29.09375 5.003906 33.859375 6.980469 37.445313 10.566406 C 41.027344 14.152344 43.003906 18.921875 43 23.992188 C 42.996094 34.460938 34.476563 42.972656 24.015625 42.972656 L 24.007813 42.972656 C 20.828125 42.972656 17.707031 42.175781 14.933594 40.664063 L 4.867188 43.304688 L 7.5625 33.46875 C 5.898438 30.589844 5.027344 27.324219 5.027344 23.980469 C 5.03125 13.515625 13.546875 5 24.015625 5 M 24.015625 42.972656 L 24.015625 42.972656 M 24.015625 42.972656 L 24.015625 42.972656 M 24.015625 4 C 12.996094 4 4.03125 12.960938 4.027344 23.980469 C 4.027344 27.347656 4.875 30.664063 6.488281 33.601563 L 3.902344 43.039063 C 3.808594 43.386719 3.90625 43.753906 4.15625 44.007813 C 4.347656 44.199219 4.605469 44.304688 4.867188 44.304688 C 4.953125 44.304688 5.039063 44.292969 5.121094 44.269531 L 14.808594 41.730469 C 17.636719 43.199219 20.808594 43.972656 24.007813 43.976563 C 35.03125 43.976563 43.996094 35.011719 44 23.996094 C 44.003906 18.65625 41.925781 13.636719 38.152344 9.859375 C 34.378906 6.082031 29.355469 4.003906 24.015625 4 Z" fill="#cfd8dc"/><path d="M 35.175781 12.832031 C 32.195313 9.851563 28.234375 8.207031 24.019531 8.207031 C 15.316406 8.207031 8.234375 15.28125 8.230469 23.980469 C 8.230469 26.960938 9.066406 29.863281 10.644531 32.375 L 11.019531 32.972656 L 9.425781 38.792969 L 15.398438 37.226563 L 15.976563 37.570313 C 18.398438 39.007813 21.175781 39.769531 24.007813 39.769531 L 24.015625 39.769531 C 32.710938 39.769531 39.789063 32.691406 39.792969 23.992188 C 39.796875 19.777344 38.15625 15.8125 35.175781 12.832031 Z" fill="#40c351"/><path d="M 19.269531 16.046875 C 18.914063 15.253906 18.539063 15.238281 18.199219 15.226563 C 17.921875 15.214844 17.605469 15.214844 17.289063 15.214844 C 16.976563 15.214844 16.460938 15.332031 16.027344 15.808594 C 15.589844 16.28125 14.363281 17.429688 14.363281 19.765625 C 14.363281 22.097656 16.066406 24.355469 16.300781 24.671875 C 16.539063 24.984375 19.585938 29.929688 24.40625 31.832031 C 28.414063 33.410156 29.230469 33.097656 30.097656 33.019531 C 30.96875 32.9375 32.90625 31.871094 33.300781 30.761719 C 33.695313 29.65625 33.695313 28.707031 33.578125 28.507813 C 33.460938 28.308594 33.144531 28.191406 32.667969 27.953125 C 32.195313 27.714844 29.863281 26.570313 29.425781 26.410156 C 28.992188 26.253906 28.675781 26.175781 28.359375 26.648438 C 28.042969 27.121094 27.132813 28.191406 26.855469 28.507813 C 26.578125 28.824219 26.304688 28.863281 25.828125 28.628906 C 25.355469 28.390625 23.828125 27.890625 22.015625 26.273438 C 20.605469 25.015625 19.652344 23.464844 19.375 22.988281 C 19.097656 22.515625 19.34375 22.257813 19.582031 22.019531 C 19.796875 21.808594 20.058594 21.464844 20.296875 21.1875 C 20.53125 20.910156 20.609375 20.714844 20.769531 20.398438 C 20.925781 20.082031 20.847656 19.804688 20.730469 19.566406 C 20.613281 19.328125 19.691406 16.984375 19.269531 16.046875 Z" fill-rule="evenodd" fill="#fff"/></svg>
